X:1
T:Title
L:1/8
Q:1/4=100
M:4/4
K:Ab
V:1 treble nm="Grand Piano"
V:1
 CFFF F F3 | FAGF G>F =E2 | C=E/E/ EE E E3 | =EGFE F>D C2 | ccdc c2 B2 | BBcB B2 A2 | %6
w: ????~???~???? * * * * *||||||
 FGAB c/d/c/B/ c2 | GBAG A/B/A/G/ F2 |] %8
w: ||

